packages/foundations/assets/icons/functional/images/devices/camera_24_filled.svg

<svg width="24" height="24" viewBox="0 0 24 24" fill="none" xmlns="http://www.w3.org/2000/svg">
<g clip-path="url(#clip0_2204_2738)">
<path fill-rule="evenodd" clip-rule="evenodd" d="M14.4049 4.5C15.0927 4.5 15.7502 4.78338 16.2224 5.28343L17.527 6.666L19.5 6.66667C20.8255 6.66667 22 7.70002 22 9.00229V17C22 18.3807 20.8807 19.5 19.5 19.5H4.5C3.11929 19.5 2 18.3807 2 17V9.16667C2 7.78595 3.11929 6.66667 4.5 6.66667L6.504 6.666L7.76168 5.30461C8.19194 4.83834 8.94951 4.5 9.6 4.5H14.4049ZM12 9C10.067 9 8.5 10.567 8.5 12.5C8.5 14.433 10.067 16 12 16C13.933 16 15.5 14.433 15.5 12.5C15.5 10.567 13.933 9 12 9ZM12 11C11.1716 11 10.5 11.6716 10.5 12.5C10.5 13.3284 11.1716 14 12 14C12.8284 14 13.5 13.3284 13.5 12.5C13.5 11.6716 12.8284 11 12 11Z" fill="#1A1C1F"/>
</g>
<defs>
<clipPath id="clip0_2204_2738">
<rect width="24" height="24" fill="white"/>
</clipPath>
</defs>
</svg>

<svg xmlns="http://www.w3.org/2000/svg" width="24" height="24" fill="none"><g clip-path="url(#a)"><path fill="#1A1C1F" fill-rule="evenodd" d="M14.405 4.5a2.5 2.5 0 0 1 1.817.783l1.305 1.383H19.5c1.326 0 2.5 1.034 2.5 2.336V17a2.5 2.5 0 0 1-2.5 2.5h-15A2.5 2.5 0 0 1 2 17V9.167a2.5 2.5 0 0 1 2.5-2.5l2.004-.001 1.258-1.361C8.192 4.838 8.95 4.5 9.6 4.5zM12 9a3.5 3.5 0 1 0 0 7 3.5 3.5 0 0 0 0-7m0 2a1.5 1.5 0 1 0 0 3 1.5 1.5 0 0 0 0-3" clip-rule="evenodd"/></g><defs><clipPath id="a"><path fill="#fff" d="M0 0h24v24H0z"/></clipPath></defs></svg>
